src/status/16/indicator-cpufreq-50.svg

<svg viewBox="0 0 16 16" xmlns="http://www.w3.org/2000/svg">
 <path d="m5.5 0c-0.277 0-0.5 0.223-0.5 0.5v0.5h-2c-1.108 0-2 0.892-2 2v2h-0.5c-0.277 0-0.5 0.223-0.5 0.5s0.223 0.5 0.5 0.5h0.5v4h-0.5c-0.277 0-0.5 0.223-0.5 0.5s0.223 0.5 0.5 0.5h0.5v2c0 1.108 0.892 2 2 2h2v0.5c0 0.277 0.223 0.5 0.5 0.5s0.5-0.223 0.5-0.5v-0.5h4v0.5c0 0.277 0.223 0.5 0.5 0.5s0.5-0.223 0.5-0.5v-0.5h2c1.108 0 2-0.892 2-2v-2h0.5c0.277 0 0.5-0.223 0.5-0.5s-0.223-0.5-0.5-0.5h-0.5v-4h0.5c0.277 0 0.5-0.223 0.5-0.5s-0.223-0.5-0.5-0.5h-0.5v-2c0-1.108-0.892-2-2-2h-2v-0.5c0-0.277-0.223-0.5-0.5-0.5-0.277 1.4803e-16 -0.5 0.223-0.5 0.5v0.5h-4v-0.5c0-0.277-0.223-0.5-0.5-0.5zm-2.5 2h2.5 5 2.5c0.554 0 1 0.446 1 1v2.5 5 2.5c0 0.554-0.446 1-1 1h-2.5-5-2.5c-0.554 0-1-0.446-1-1v-2.5-5-2.5c0-0.554 0.446-1 1-1z" fill="#2e3440"/>
 <rect x="4" y="8" width="8" height="4" rx="1" fill="#2e3440"/>
</svg>

<svg xmlns="http://www.w3.org/2000/svg" viewBox="0 0 16 16">
 <path style="fill:#2e3440;opacity:1;fill-opacity:1;stroke:none;fill-rule:nonzero" d="M 5.5 0 C 5.223 0 5 0.223 5 0.5 L 5 1 L 3 1 C 1.892 1 1 1.892 1 3 L 1 5 L 0.5 5 C 0.223 5 0 5.223 0 5.5 C 0 5.777 0.223 6 0.5 6 L 1 6 L 1 10 L 0.5 10 C 0.223 10 0 10.223 0 10.5 C 0 10.777 0.223 11 0.5 11 L 1 11 L 1 13 C 1 14.108 1.892 15 3 15 L 5 15 L 5 15.5 C 5 15.777 5.223 16 5.5 16 C 5.777 16 6 15.777 6 15.5 L 6 15 L 10 15 L 10 15.5 C 10 15.777 10.223 16 10.5 16 C 10.777 16 11 15.777 11 15.5 L 11 15 L 13 15 C 14.108 15 15 14.108 15 13 L 15 11 L 15.5 11 C 15.777 11 16 10.777 16 10.5 C 16 10.223 15.777 10 15.5 10 L 15 10 L 15 6 L 15.5 6 C 15.777 6 16 5.777 16 5.5 C 16 5.223 15.777 5 15.5 5 L 15 5 L 15 3 C 15 1.892 14.108 1 13 1 L 11 1 L 11 0.5 C 11 0.223 10.777 1.6961358e-17 10.5 0 C 10.223 1.4802974e-16 10 0.223 10 0.5 L 10 1 L 6 1 L 6 0.5 C 6 0.223 5.777 1.6961358e-17 5.5 0 z M 3 2 L 5.5 2 L 10.5 2 L 13 2 C 13.554 2 14 2.446 14 3 L 14 5.5 L 14 10.5 L 14 13 C 14 13.554 13.554 14 13 14 L 10.5 14 L 5.5 14 L 3 14 C 2.446 14 2 13.554 2 13 L 2 10.5 L 2 5.5 L 2 3 C 2 2.446 2.446 2 3 2 z "/>
 <rect style="fill:#2e3440;opacity:1;fill-opacity:1;stroke:none;fill-rule:nonzero" y="8" x="4" rx="1" height="4" width="8"/>
</svg>
